icons/codescan-checkmark-24.svg

<svg width="24" height="24" viewBox="0 0 24 24" fill="none" xmlns="http://www.w3.org/2000/svg">
<path d="M15.0303 8.28033C15.3232 7.98744 15.3232 7.51256 15.0303 7.21967C14.7374 6.92678 14.2626 6.92678 13.9697 7.21967L8.75 12.4393L6.53033 10.2197C6.23744 9.92678 5.76256 9.92678 5.46967 10.2197C5.17678 10.5126 5.17678 10.9874 5.46967 11.2803L8.21967 14.0303C8.51256 14.3232 8.98744 14.3232 9.28033 14.0303L15.0303 8.28033Z" fill="#24292E"/>
<path fill-rule="evenodd" clip-rule="evenodd" d="M0 10.5C0 4.70101 4.70101 0 10.5 0C16.299 0 21 4.70101 21 10.5C21 13.1296 20.0334 15.5334 18.4361 17.3754L22.7803 21.7197C23.0732 22.0126 23.0732 22.4874 22.7803 22.7803C22.4874 23.0732 22.0126 23.0732 21.7197 22.7803L17.3754 18.4361C15.5334 20.0334 13.1296 21 10.5 21C4.70101 21 0 16.299 0 10.5ZM10.5 1.5C5.52944 1.5 1.5 5.52944 1.5 10.5C1.5 15.4706 5.52944 19.5 10.5 19.5C15.4706 19.5 19.5 15.4706 19.5 10.5C19.5 5.52944 15.4706 1.5 10.5 1.5Z" fill="#24292E"/>
</svg>

<svg xmlns="http://www.w3.org/2000/svg" width="24" height="24" viewBox="0 0 24 24"><path d="M15.03 8.28a.75.75 0 00-1.06-1.06l-5.22 5.22-2.22-2.22a.75.75 0 10-1.06 1.06l2.75 2.75a.75.75 0 001.06 0l5.75-5.75z"/><path fill-rule="evenodd" d="M0 10.5C0 4.701 4.701 0 10.5 0S21 4.701 21 10.5c0 2.63-.967 5.033-2.564 6.875l4.344 4.345a.75.75 0 11-1.06 1.06l-4.345-4.344A10.459 10.459 0 0110.5 21C4.701 21 0 16.299 0 10.5zm10.5-9a9 9 0 100 18 9 9 0 000-18z"/></svg>
